X:1865
T:Bourrée  (Moridon Cottet)
C:MCTB 1/37
M:3/8
L:1/8
K:C
c|B/A/Gc|d2f|e/d/cd|edc|\
B/A/Gc|def|e/d/ce|d2:|
|:G|de/f/g|f>dg|a/g/fe|dec|\
de/f/g/f/|edc|d/e/dB|c2:|


